X:1
T:Title
%%score { ( 1 3 5 ) | ( 2 4 ) }
L:1/8
Q:1/4=100
M:4/4
K:D
V:1 treble nm="Grand Piano"
V:3 treble 
V:5 treble 
V:2 bass 
V:4 bass 
V:1
 F3 E DEFG | A4 F4 | F2 F2 E2 D2 | [CE]8 | F3 E DEFG | A4 [G,DG]4 | [A,F]4 [A,B,G]2 E2 | D8 | %8
w: James~Mountain * * * * *||||||||
 A3 A BcdB | A4 F4 | F2 F2 [^A,EG]2 .[B,DF]2 | E8 | A3 A BcdB | A4 [G,DG]4 | %14
w: ||||||
 [A,F]4 [A,B,G]2 [CE]2 | [F,D]8 |] %16
w: ||
V:2
 [D,A,D]3 [D,G,D] [D,F,][D,G,D][D,A,D][D,E,D] | [D,F,D]4 [D,A,D]4 | %2
 [D,A,D]2 [D,A,D]2 [D,G,C]2 [D,F,]2 | [A,,A,]8 | [D,A,D]3 [D,G,D] [D,F,][D,G,D][D,A,D][D,E,D] | %5
 [D,F,D]4 ^A,,4 | z2 C2 z2 [G,C]2 | [D,F,]8 | [D,F,D]3 [D,F,D] [D,G,D][D,E,E][D,F,D][D,G,D] | %9
 [D,F,D]4 [D,A,D]4 | [D,A,D]2 [D,A,D]2 C,2 z A, | B,,4 z2 G,2 | %12
 [D,F,D]3 [D,F,D] [D,G,D][D,E,E][D,F,D][D,G,D] | [D,F,D]4 B,,2 ^A,,2 | z2 C2 z2 G,2 | D,8 |] %16
V:3
 x8 | x8 | x8 | x8 | x8 | x8 | D2 z2 z4 | x8 | x8 | x8 | x8 | [^G,D]4 C4 | x8 | x8 | D2 z2 z4 | %15
 x8 |] %16
V:4
 x8 | x8 | x8 | x8 | x8 | x8 | A,,4 A,,4 | x8 | x8 | x8 | z4 z2 B,,2 | z4 A,,4 | x8 | x8 | %14
 A,,4 A,,4 | x8 |] %16
V:5
 x8 | x8 | x8 | x8 | x8 | x8 | x8 | x8 | x8 | x8 | x8 | z4 A,2 z2 | x8 | x8 | x8 | x8 |] %16

